images/icon/medicinecosmeticsbottletreatment_109776-1.svg

<svg width="48" height="48" viewBox="0 0 48 48" fill="none" xmlns="http://www.w3.org/2000/svg">
<g clip-path="url(#clip0_64_171)">
<path d="M13.1079 18.0728H-0.18439C-0.592759 18.0728 -0.922852 18.3895 -0.922852 18.7813V23.0323C-0.922852 23.4241 -0.592759 23.7408 -0.18439 23.7408H0.554072V40.0363C0.554072 40.4281 0.884164 40.7448 1.29253 40.7448H11.631C12.0394 40.7448 12.3695 40.4281 12.3695 40.0363V37.2023V26.5748V23.7408H13.1079C13.5163 23.7408 13.8464 23.4241 13.8464 23.0323V18.7813C13.8464 18.3895 13.5163 18.0728 13.1079 18.0728ZM4.98484 31.5343V30.1173H9.41561V28.7003H4.98484V27.2833H10.8925V36.4938H4.98484V32.9513H6.46176V31.5343H4.98484ZM10.8925 25.8663H4.24638C3.83801 25.8663 3.50792 26.183 3.50792 26.5748V37.2023C3.50792 37.5941 3.83801 37.9108 4.24638 37.9108H10.8925V39.3278H2.03099V23.7408H10.8925V25.8663ZM12.3695 22.3238H11.631H1.29253H0.554072V19.4898H12.3695V22.3238Z" fill="#2B7FFF"/>
<path d="M22.8926 18.2056V13.0258C22.8926 12.6224 22.5625 12.2963 22.1541 12.2963H21.4157V8.64908H22.8926V7.19019H14.7695V8.64908H19.9388V12.2963H19.2003C18.7919 12.2963 18.4618 12.6224 18.4618 13.0258V18.2056C16.7789 18.5448 15.508 20.0175 15.508 21.7792V23.2381V37.0976V40.0154C15.508 40.4188 15.8381 40.7448 16.2465 40.7448H25.108C25.5164 40.7448 25.8465 40.4188 25.8465 40.0154V37.0976V23.2381V21.7792C25.8465 20.0183 24.5756 18.5448 22.8926 18.2056ZM19.9388 13.7552H21.4157V18.1319H19.9388V13.7552ZM19.2003 19.5908H22.1541C23.3756 19.5908 24.3695 20.5727 24.3695 21.7792V22.5086H16.9849V21.7792C16.9849 20.5727 17.9789 19.5908 19.2003 19.5908ZM24.3695 36.3682H16.9849V34.9093H19.9388V33.4504H16.9849V23.9675H24.3695V36.3682ZM16.9849 39.2859V37.827H24.3695V39.2859H16.9849Z" fill="#2B7FFF"/>
<path d="M41.7696 17.166H29.308C28.9252 17.166 28.6157 17.4854 28.6157 17.8805V40.0305C28.6157 40.4256 28.9252 40.745 29.308 40.745H41.7696C42.1524 40.745 42.4619 40.4256 42.4619 40.0305V17.8805C42.4619 17.4854 42.1524 17.166 41.7696 17.166ZM41.0773 39.3159H30.0003V18.595H41.0773V39.3159Z" fill="#2B7FFF"/>
<path d="M10.1543 31.676H8.30811V32.5829H10.1543V31.676Z" fill="#2B7FFF"/>
<path d="M23.0771 33.4897H21.231V35.3035H23.0771V33.4897Z" fill="#2B7FFF"/>
<path d="M20.7693 31.6761C22.5511 31.6761 24.0001 30.2525 24.0001 28.502C24.0001 26.7515 22.5511 25.3279 20.7693 25.3279C18.9876 25.3279 17.5386 26.7515 17.5386 28.502C17.5386 30.2525 18.9876 31.6761 20.7693 31.6761ZM20.7693 26.9149C21.6602 26.9149 22.3847 27.6267 22.3847 28.502C22.3847 29.3772 21.6602 30.089 20.7693 30.089C19.8785 30.089 19.154 29.3772 19.154 28.502C19.154 27.6267 19.8785 26.9149 20.7693 26.9149Z" fill="#2B7FFF"/>
<path d="M33.8078 24.4209H37.2694C38.6055 24.4209 39.6925 23.4039 39.6925 22.1537C39.6925 20.9035 38.6055 19.8865 37.2694 19.8865H33.8078C32.4717 19.8865 31.3848 20.9035 31.3848 22.1537C31.3848 23.4039 32.4717 24.4209 33.8078 24.4209ZM38.3078 22.1537C38.3078 22.6894 37.8419 23.1253 37.2694 23.1253H36.2309V21.182H37.2694C37.8419 21.182 38.3078 21.618 38.3078 22.1537ZM33.8078 21.182H34.8463V23.1253H33.8078C33.2353 23.1253 32.7694 22.6894 32.7694 22.1537C32.7694 21.618 33.2353 21.182 33.8078 21.182Z" fill="#2B7FFF"/>
<path d="M33.8078 31.6759H37.2694C38.6055 31.6759 39.6925 30.4555 39.6925 28.9553C39.6925 27.455 38.6055 26.2346 37.2694 26.2346H33.8078C32.4717 26.2346 31.3848 27.455 31.3848 28.9553C31.3848 30.4555 32.4717 31.6759 33.8078 31.6759ZM38.3078 28.9553C38.3078 29.5981 37.8419 30.1213 37.2694 30.1213H36.2309V27.7893H37.2694C37.8419 27.7893 38.3078 28.3124 38.3078 28.9553ZM33.8078 27.7893H34.8463V30.1213H33.8078C33.2353 30.1213 32.7694 29.5981 32.7694 28.9553C32.7694 28.3124 33.2353 27.7893 33.8078 27.7893Z" fill="#2B7FFF"/>
<path d="M33.8078 38.0243H37.2694C38.6055 38.0243 39.6925 36.8039 39.6925 35.3037C39.6925 33.8034 38.6055 32.583 37.2694 32.583H33.8078C32.4717 32.583 31.3848 33.8034 31.3848 35.3037C31.3848 36.8039 32.4717 38.0243 33.8078 38.0243ZM38.3078 35.3037C38.3078 35.9465 37.8419 36.4696 37.2694 36.4696H36.2309V34.1377H37.2694C37.8419 34.1377 38.3078 34.6608 38.3078 35.3037ZM33.8078 34.1377H34.8463V36.4696H33.8078C33.2353 36.4696 32.7694 35.9465 32.7694 35.3037C32.7694 34.6608 33.2353 34.1377 33.8078 34.1377Z" fill="#2B7FFF"/>
</g>
<defs>
<clipPath id="clip0_64_171">
<rect width="48" height="48" fill="white"/>
</clipPath>
</defs>
</svg>

<svg xmlns="http://www.w3.org/2000/svg" width="48" height="48" fill="none"><g fill="#2B7FFF" clip-path="url(#a)"><path d="M13.108 18.073H-.184c-.409 0-.739.317-.739.708v4.251c0 .392.33.709.739.709h.738v16.295c0 .392.33.709.739.709H11.63c.408 0 .739-.317.739-.709V23.741h.738c.408 0 .738-.317.738-.709v-4.25c0-.392-.33-.71-.738-.71M4.985 31.534v-1.417h4.43V28.7h-4.43v-1.417h5.908v9.21H4.985v-3.542h1.477v-1.417zm5.908-5.668H4.246c-.408 0-.738.317-.738.709v10.627c0 .392.33.709.738.709h6.647v1.417H2.03V23.74h8.862zm1.476-3.542H.555V19.49H12.37zm10.524-4.118v-5.18c0-.404-.33-.73-.739-.73h-.738V8.65h1.477V7.19H14.77v1.46h5.169v3.646H19.2a.733.733 0 0 0-.738.73v5.18c-1.683.339-2.954 1.811-2.954 3.573v18.236c0 .404.33.73.739.73h8.861a.733.733 0 0 0 .738-.73V21.78c0-1.76-1.27-3.234-2.953-3.573m-2.954-4.45h1.477v4.376h-1.477zM19.2 19.59h2.954c1.222 0 2.215.982 2.215 2.188v.73h-7.384v-.73c0-1.206.994-2.188 2.215-2.188m5.17 16.777h-7.385V34.91h2.954v-1.46h-2.954v-9.483h7.384zm-7.385 2.918v-1.459h7.384v1.459zM41.77 17.166H29.308a.703.703 0 0 0-.692.715v22.15c0 .395.31.714.692.714H41.77c.382 0 .692-.32.692-.714V17.88a.703.703 0 0 0-.692-.715m-.693 22.15H30v-20.72h11.077z"/><path d="M10.154 31.676H8.308v.907h1.846zm12.923 1.814h-1.846v1.813h1.846zm-2.307-1.814c1.781 0 3.23-1.423 3.23-3.174s-1.449-3.174-3.23-3.174c-1.782 0-3.231 1.424-3.231 3.174s1.449 3.174 3.23 3.174m0-4.761c.89 0 1.615.712 1.615 1.587s-.725 1.587-1.616 1.587c-.89 0-1.615-.712-1.615-1.587s.724-1.587 1.615-1.587m13.04-2.495h3.461c1.337 0 2.424-1.016 2.424-2.266s-1.087-2.267-2.424-2.267h-3.461c-1.336 0-2.423 1.017-2.423 2.267s1.087 2.267 2.423 2.267m4.5-2.266c0 .535-.466.971-1.039.971h-1.038v-1.943h1.038c.573 0 1.039.436 1.039.972m-4.5-.972h1.038v1.943h-1.038c-.573 0-1.039-.436-1.039-.971 0-.536.466-.972 1.039-.972m0 10.493h3.461c1.337 0 2.424-1.22 2.424-2.72s-1.087-2.721-2.424-2.721h-3.461c-1.336 0-2.423 1.22-2.423 2.72s1.087 2.72 2.423 2.72m4.5-2.72c0 .642-.466 1.165-1.039 1.165h-1.038v-2.33h1.038c.573 0 1.039.523 1.039 1.166m-4.5-1.167h1.038v2.332h-1.038c-.573 0-1.039-.523-1.039-1.166s.466-1.166 1.039-1.166m0 10.235h3.461c1.337 0 2.424-1.22 2.424-2.72s-1.087-2.721-2.424-2.721h-3.461c-1.336 0-2.423 1.22-2.423 2.72s1.087 2.721 2.423 2.721m4.5-2.72c0 .642-.466 1.166-1.039 1.166h-1.038v-2.332h1.038c.573 0 1.039.523 1.039 1.166m-4.5-1.166h1.038v2.332h-1.038c-.573 0-1.039-.523-1.039-1.166s.466-1.166 1.039-1.166"/></g><defs><clipPath id="a"><path fill="#fff" d="M0 0h48v48H0z"/></clipPath></defs></svg>
